X:0
T:I Have a Wife of My Ain
G:jig
M:9/8
L:1/8
Q:3/8=120
K:EDor
EFE GGA B3|E2E G2A BGE |\
E2E GGA B3|D2D dcB AFD||
gag fgf e3|E2E G2A BGE |\
g2g fgf e3|D2D dcB AFD|]

Double tonic tunes may take a more emphatic form where the shift is not
between two relative modes, but between two keys with different signatures.
This tune hints at that.  It's mostly in E dorian, but each part ends
in D, the same tonal shift as the previous two tunes.  The E tonality is
reinforced by a sharpened leading note:

